X:1
%%titlefont  Times-Roman 16.0
%%subtitlefont  Times-Roman 20.0
%%header "$P / 4"
%%footer Nun komm, der Heiden Heiland
%%sysstaffsep 0.9cm
%%continueall 1
T:Trio super
T:Nun komm, der Heiden Heiland (BWV 660)
C:J.S. Bach
M:C|
L:1/16
K:Gm
V:1
z16|z16|z16|z16|
V:2
z2G,2G,2^F,2 B,4 A,4-|A,2G,4^F,A, B,,E,D,E, A,,D,C,D,|G,,C,B,,C, ^F,,2A,2 B,EDE A,DCD|B,DG,B, E,CB,C A,CF,A, D,B,A,B,|
V:3
z8 z2G,2G,2^F,2|B,4 A,4- A,2G,4 ^F,A,|B,,E,D,E, A,,D,C,D, G,,C,B,,C, ^F,,2^F,2|G,2B,2C2E,2 F,2A,2B,2D,2|
V:1
z16|z16|z8MG8|
V:2
G,B,E,G, C,A,G,A, ^F,A,D,F, B,,G,=F,G,|E,G,C,E, A,,C,^F,,A,, D,,D,=E,^F, G,F,G,A,|B,A,G,A, D,2!turn!^F,2 G,4z4|
V:3
E,2G,2A,2C,2 D,2^F,2G,2B,,2|C,8- C,2C,2B,,2A,,2|G,,2C,2D,2D,,2 G,,G,=F,G, E,G,C,E,|
V:1
G4- GBA/B/G ^F6 G/F/=E/D/|B4- BABc AcBA G^FGA|!tr3!A12- A3G/A/|G4 z4 z8|
V:2
zG,=F,G, E,G,C,E, A,,2^F,,2D,2D,,2|G,,G,=F,G, E,F,D,E, C,2A,2D2D2|D2^C2 F4 M=E4- EEDF|B,2G,2A,2^C,2 D,2F,2G,2B,,2|
V:3
=B,,2G,,2C,2C,,2 D,,D,C,D, _B,,C,A,,B,,|G,,2D,2G,2G,2 G,2^F,2 B,4|A,2A,,2D,2D,2 D,2^C,2 F,4-|F,F,=E,G, ^C,A,G,A, F,A,D,F, B,,G,F,G,|
% (2)
V:1
z16|z16|z16|z16|
V:2
=C,2=E,2F,2A,,2 B,,2D,2E,2G,,2|A,,2^C,2D,2F,,2 G,,8-|G,,B,A,G, F,=E,D,^C, D,DB,G, F,D,E,^C,|[D,2^F,2A,2D2]z2 z4 z2G,2G,2^F,2|
V:3
=E,G,C,E, A,,F,E,F, D,F,B,,D, G,,E,D,E,|^C,=E,A,,C, F,,D=CD B,DG,B, E,G,^C,E,|A,,2^C,2D,2=E,2 F,2G,2A,2A,,2|D,,2G,2G,2^F,2 B,4A,4-|
V:1
z16|MG3A PA3G/A/ B4- BABc|!trill!c6- cB/c/ B8|Mc6 ed d6 PcB|
V:2
B,4 A,4- A,2G,4 ^F,A,|B,,E,D,E, A,,D,C,D, G,,4 z4|zA,G,A, F,G,E,F, D,2D2D2B,2|zEDE CEA,C ^F,2A,2B,2D,2-|
V:3
A,2G,4 ^F,A, B,,E,D,E, A,,D,C,D,|G,,4 z4 zG,F,G, E,F,D,E,|C,2B,2B,2A,2 zDCD B,DG,B,|E,2G,2A,2C,2- C,D,C,D, B,,C,A,,B,,|
V:1
B4 z4 z8|z16|z16|z16|
V:2
D,E,C,D, B,,C,A,,B,, G,,2G,2G,2^F,2|B,4 A,4- A,2G,4 ^F,A,|B,,2B,2B,2A,2 D4C4-|C2B,4 A,C D,G,F,G, C,F,E,F,|
V:3
G,,2G,2G,2^F,2 B,4 A,4-|A,2G,4 ^F,A, B,,2B,2B,2A,2|D4 C4- C2B,4 A,C|D,G,F,G, C,F,E,F, B,,E,D,E, A,,2A,2|
% (3)
V:1
MB4- BcBc !trill!c6- cB/c/|d4- dedc PBAB2- BABG|cd/e/dc B^fgc {B}PA6- AG/A/|
V:2
B,,DCD B,DG,B, E,CB,C A,CF,A,|D,2B,,2D,2^F,2 G,3^F, G,4-|G,A,^F,A, G,4- G,2G,2G,2^F,2|
V:3
B,2A,2G,2E,2 z2C,2F,2F,,2|B,,F,E,F, D,F,B,,D, G,,D,C,D, B,,D,G,,B,,|E,,4- E,,E,D,E, C,D,B,,C, A,,D,C,D,|
V:1
G4 z4 z8|z16|z16|
V:2
B,4 A,4- A,2G,4 =F,_A,|=B,,E,D,E, =A,,D,C,D, G,,C,=B,,C, F,,2F,2-|F,2E,2- E,D,E,C, =B,,2G,,2 zGFG|
V:3
G,,2G,2G,2^F,2 B,4_A,4-|A,2G,4 =F,_A, =B,,E,D,E, =A,,D,C,D,|G,,C,=B,,C, F,,2_A,2- A,G,A,F, G,2=B,,2|
V:1
z16|z16|z16|
V:2
EGCE _A,FEF DFB,D G,EDE|CE_A,C F,DCD =B,DG,B, E,C_B,C|_A,CF,A, D,F,=B,,D, G,,G,=A,=B, CB,CD|
V:3
C,2E,2F,2_A,,2 _B,,2D,2E,2G,,2|_A,,2C,2D,2F,,2 G,,2=B,,2C,2E,,2|F,,8- F,,2F,2E,2D,2|
% (4)
V:1
z8 MG8|G4- G/A/G/^F/G3/A/ P^F8|B4- BABc AcBA G^FGA|
V:2
EDCD G,2=B,2 CEDE F,DCD-|DG, C2C2_B,2 E4D4-|DG,F,G, E,F,D,E, C,2A,2D2D2|
V:3
C,2F,2G,2G,,2 C,,2C,2C,2=B,,2|E,4 D,4 zD,C,D, B,,C,A,,B,,|G,,2D,2G,2G,2 G,2^F,2 B,4|
V:1
!ubt3!A8- A6- AG/A/|G16-|G4 z4 z8|
V:2
D,2^C,2 F4 =E4- E_EDF|=B,2!turn!C2 DG,D,F, E,2=B,,2 C,E,D,F,|E,C=B,D C_B,A,G, ^F,G,F,=E, D,2F,2|
V:3
A,2A,,2D,2D,2 D,2^C,2 F,4-|F,F,E,G, =B,,2G,,2 C,G,D,F, E,2=B,,2|C,E,D,F, E,2C,2 D,2D,,2 zDCD|
V:1
z16|z16|z16|z16|]
V:2
G,2B,2C2E,2 F,2A,2B,2D,2|E,2G,2A,2C,2 D,2^F,2G,2B,,2|C,8- C,E,D,C, B,,A,,G,,^F,,|G,,G,E,C, B,,G,A,,^F, [G,,2=B,,2D,2G,2]z2z4|]
V:3
B,DG,B, E,CB,C A,CF,A, D,B,A,B,|G,B,E,G, C,A,G,A, ^F,A,D,F, B,,G,=F,G,|E,G,C,E, A,,C,^F,,A,, D,,2F,,2G,,2A,,2|B,,2C,2D,2D,,2 HG,,8|]
